brandFactory_export/1.Light/Configurar modem_1Light.svg

<?xml version="1.0" encoding="UTF-8"?>
<svg width="24px" height="24px" viewBox="0 0 24 24" version="1.1" xmlns="http://www.w3.org/2000/svg" xmlns:xlink="http://www.w3.org/1999/xlink">
    <title>1.Light/Configurar modem_1Light</title>
    <g id="Symbols" stroke="none" stroke-width="1" fill="none" fill-rule="evenodd">
        <g id="1.Light/Configurar-modem_1Light" fill="#5CB615" fill-rule="nonzero">
            <path d="M4.26890756,4.93445378 C4.45378151,4.93445378 4.60504202,5.08571429 4.60504202,5.27058824 L4.605,14.4297757 L12.326,14.4297757 L12.3697479,14.3798319 L12.9512605,13.7983193 C12.8605042,13.5764706 12.789916,13.3478992 12.7361345,13.112605 L12.7361345,13.112605 L11.8453782,13.112605 C11.4756303,13.112605 11.1731092,12.810084 11.1731092,12.4403361 L11.1731092,12.4403361 L11.1731092,11.1966387 C11.1731092,10.8268908 11.4756303,10.5243697 11.8453782,10.5243697 L11.8453782,10.5243697 L12.7327731,10.5243697 C12.7831933,10.2890756 12.8571429,10.0605042 12.9478992,9.83865546 L12.9478992,9.83865546 L12.3663866,9.25714286 C12.1042017,8.99495798 12.1042017,8.56806723 12.3663866,8.30588235 L12.3663866,8.30588235 L13.2436975,7.42857143 C13.5058824,7.16638655 13.9327731,7.16638655 14.194958,7.42857143 L14.194958,7.42857143 L14.7764706,8.01008403 C14.9983193,7.91932773 15.2268908,7.8487395 15.4621849,7.79495798 L15.4621849,7.79495798 L15.4621849,6.90420168 C15.4621849,6.53445378 15.7647059,6.23193277 16.1344538,6.23193277 L16.1344538,6.23193277 L17.3781513,6.23193277 C17.7478992,6.23193277 18.0504202,6.53109244 18.0504202,6.90420168 L18.0504202,6.90420168 L18.0504202,7.79495798 C18.2857143,7.84537815 18.5142857,7.91932773 18.7361345,8.01008403 L18.7361345,8.01008403 L19.3176471,7.42857143 C19.5798319,7.16638655 20.0067227,7.16638655 20.2689076,7.42857143 L20.2689076,7.42857143 L21.1563025,8.30588235 C21.4184874,8.56806723 21.4184874,8.99495798 21.1563025,9.25714286 L21.1563025,9.25714286 L20.5747899,9.83865546 C20.6655462,10.0605042 20.7361345,10.2890756 20.789916,10.5243697 L20.789916,10.5243697 L21.6773109,10.5243697 C22.0470588,10.5243697 22.3495798,10.8268908 22.3495798,11.1966387 L22.3495798,11.1966387 L22.3495798,12.4403361 C22.3495798,12.810084 22.0470588,13.112605 21.6773109,13.112605 L21.6773109,13.112605 L20.7865546,13.112605 C20.7361345,13.3478992 20.6621849,13.5764706 20.5714286,13.7983193 L20.5714286,13.7983193 L21.1529412,14.3798319 C21.2142978,14.4411886 21.2612958,14.5115655 21.293935,14.5867408 L21.1495798,14.5512605 C22.7630252,14.9176471 23.6168067,16.1277311 23.6168067,18.0470588 L23.6168067,20.0134454 C23.6168067,21.1563025 23.3142857,22.0470588 22.7226891,22.6621849 C22.1042017,23.3008403 21.1865546,23.6235294 20,23.6235294 L3.61344538,23.6235294 C2.42689076,23.6235294 1.5092437,23.297479 0.894117647,22.6588235 C0.302521008,22.0436975 7.94191379e-11,21.1529412 7.94191379e-11,20.010084 L7.94191379e-11,18.0436975 C7.94191379e-11,16.9008403 0.302521008,16.010084 0.894117647,15.394958 C1.5092437,14.7563025 2.42689076,14.4302521 3.61344538,14.4302521 L3.932,14.4297757 L3.93277311,5.27058824 C3.93277311,5.08571429 4.08403361,4.93445378 4.26890756,4.93445378 Z M12.2200643,15.1032001 L3.61344538,15.102521 C2.61512605,15.102521 1.86218487,15.3579832 1.37815126,15.8621849 C0.91092437,16.3495798 0.672268908,17.0823529 0.672268908,18.0436975 L0.672268908,20.010084 C0.672268908,20.9714286 0.91092437,21.707563 1.37815126,22.1915966 C1.86218487,22.6957983 2.61512605,22.9512605 3.61344538,22.9512605 L20,22.9512605 C20.9983193,22.9512605 21.7512605,22.6957983 22.2352941,22.1915966 C22.702521,21.7042017 22.9411765,20.9714286 22.9411765,20.010084 L22.9411765,18.0436975 C22.9411765,17.2504202 22.7798319,16.6084034 22.4605042,16.1378151 C22.1770139,15.72004 21.7557648,15.4267776 21.2108682,15.2627318 L21.1529412,15.3310924 L20.2722689,16.2084034 C20.010084,16.4705882 19.5831933,16.4705882 19.3210084,16.2084034 L19.3210084,16.2084034 L18.7394958,15.6268908 C18.5176471,15.7176471 18.2890756,15.7882353 18.0537815,15.8420168 L18.0537815,15.8420168 L18.0537815,16.7327731 C18.0537815,17.102521 17.7512605,17.405042 17.3815126,17.405042 L17.3815126,17.405042 L16.1378151,17.405042 C15.7680672,17.405042 15.4655462,17.102521 15.4655462,16.7327731 L15.4655462,16.7327731 L15.4655462,15.8420168 C15.2302521,15.7915966 15.0016807,15.7176471 14.7798319,15.6268908 L14.7798319,15.6268908 L14.1983193,16.2084034 C13.9361345,16.4705882 13.5092437,16.4705882 13.2470588,16.2084034 L13.2470588,16.2084034 L12.3697479,15.3310924 C12.3027151,15.2640596 12.2528205,15.1862604 12.2200643,15.1032001 Z M3.30756303,18.2285714 C3.79495798,18.2285714 4.11428571,18.4840336 4.11092437,19.0252101 C4.11092437,19.287395 4.04033613,19.4823529 3.9092437,19.6134454 C3.76806723,19.7579832 3.56302521,19.8252101 3.30756303,19.8252101 C3.05210084,19.8252101 2.84705882,19.7546218 2.70588235,19.6134454 C2.57815126,19.4823529 2.50420168,19.287395 2.50420168,19.0252101 C2.50420168,18.4806723 2.82016807,18.2285714 3.30756303,18.2285714 Z M6.23193277,18.2285714 C6.71932773,18.2285714 7.03865546,18.4840336 7.03529412,19.0252101 C7.03529412,19.287395 6.96470588,19.4823529 6.83361345,19.6134454 C6.69243697,19.7579832 6.48739496,19.8252101 6.23193277,19.8252101 C5.97647059,19.8252101 5.77142857,19.7546218 5.6302521,19.6134454 C5.50252101,19.4823529 5.42857143,19.287395 5.42857143,19.0252101 C5.42857143,18.4806723 5.74453782,18.2285714 6.23193277,18.2285714 Z M17.3781513,6.90756303 L16.1344538,6.90756303 L16.1344538,8.36638655 C15.5529412,8.42689076 15.0554622,8.58151261 14.6420168,8.8302521 L14.6420168,8.8302521 L13.7176471,7.90588235 L12.8403361,8.78319328 L13.7647059,9.70084034 C13.5226891,10.1042017 13.3647059,10.6016807 13.3008403,11.1932773 L13.3008403,11.1932773 L11.8420168,11.1932773 L11.8420168,12.4369748 L13.3008403,12.4369748 C13.3613445,13.0285714 13.5193277,13.5260504 13.7647059,13.9294118 L13.7647059,13.9294118 L12.8403361,14.8537815 L13.7176471,15.7378151 L14.6420168,14.8134454 C15.0554622,15.0621849 15.5563025,15.2134454 16.1344538,15.2773109 L16.1344538,15.2773109 L16.1344538,16.7361345 L17.3781513,16.7361345 L17.3781513,15.2773109 C17.9596639,15.2168067 18.4571429,15.0621849 18.8705882,14.8134454 L18.8705882,14.8134454 L19.794958,15.7378151 L20.6756303,14.8605042 L19.7512605,13.9361345 C19.9932773,13.5327731 20.1512605,13.0352941 20.2151261,12.4436975 L20.2151261,12.4436975 L21.6739496,12.4436975 L21.6739496,11.2 L20.2151261,11.2 C20.1546218,10.6084034 19.9966387,10.1109244 19.7512605,9.70756303 L19.7512605,9.70756303 L20.6756303,8.78319328 L19.794958,7.90252101 L18.8705882,8.82689076 C18.4571429,8.57815126 17.9563025,8.42689076 17.3781513,8.36302521 L17.3781513,8.36302521 L17.3781513,6.90756303 Z M16.7563025,9.73781513 C18.097479,9.73781513 18.8369748,10.4773109 18.8369748,11.8184874 C18.8369748,13.1596639 18.097479,13.8991597 16.7563025,13.8991597 C15.4151261,13.8991597 14.6756303,13.1596639 14.6756303,11.8184874 C14.6756303,10.4773109 15.4151261,9.73781513 16.7563025,9.73781513 Z M16.7563025,10.410084 C15.794958,10.410084 15.3478992,10.8571429 15.3478992,11.8184874 C15.3478992,12.7798319 15.794958,13.2268908 16.7563025,13.2268908 C17.7176471,13.2268908 18.1647059,12.7798319 18.1647059,11.8184874 C18.1647059,10.8571429 17.7176471,10.410084 16.7563025,10.410084 Z M9.81176471,0.0941176471 C11.0151261,1.25378151 11.6268908,2.99495798 11.6268908,5.27058824 C11.6268908,7.53613445 11.0218487,9.27394958 9.82521008,10.4336134 C9.76470588,10.4941176 9.68067227,10.5277311 9.59327731,10.5277311 C9.40840336,10.5277311 9.25714286,10.3798319 9.25714286,10.1915966 C9.25714286,10.1008403 9.29411765,10.0134454 9.35798319,9.94957983 C10.4201681,8.9210084 10.9579832,7.34453782 10.9579832,5.27058824 C10.9579832,3.18655462 10.4168067,1.61008403 9.34789916,0.578151261 C9.21344538,0.450420168 9.21008403,0.235294118 9.33781513,0.104201681 C9.46554622,-0.0302521008 9.68067227,-0.0336134454 9.81176471,0.0941176471 Z M7.11596639,1.77815126 C7.93277311,2.56470588 8.34621849,3.74117647 8.34621849,5.27058824 C8.34621849,6.79663866 7.93613445,7.9697479 7.12268908,8.75630252 C7.06554622,8.81344538 6.98151261,8.85042017 6.89411765,8.85042017 C6.7092437,8.85042017 6.55798319,8.70252101 6.55798319,8.51428571 C6.55798319,8.42352941 6.59495798,8.33613445 6.65882353,8.27226891 C7.33445378,7.61680672 7.67731092,6.60504202 7.67731092,5.27058824 C7.67731092,3.93613445 7.33109244,2.91764706 6.65210084,2.26218487 C6.51764706,2.13445378 6.51428571,1.91932773 6.64201681,1.78823529 C6.7697479,1.65714286 6.98487395,1.65042017 7.11596639,1.77815126 Z" id="Configurar-modem_1Light"></path>
        </g>
    </g>
</svg>

<svg width="24" height="24" viewBox="0 0 24 24" xmlns="http://www.w3.org/2000/svg"><path d="M4.269 4.934c.185 0 .336.152.336.337v9.159h7.721l.044-.05.581-.582a4.388 4.388 0 01-.215-.685h-.89a.674.674 0 01-.673-.673v-1.243c0-.37.303-.673.672-.673h.888c.05-.235.124-.463.215-.685l-.582-.582a.674.674 0 010-.951l.878-.877a.674.674 0 01.951 0l.581.581c.222-.09.45-.161.686-.215v-.89c0-.37.303-.673.672-.673h1.244c.37 0 .672.3.672.672v.891c.236.05.464.124.686.215l.582-.581a.674.674 0 01.95 0l.888.877a.674.674 0 010 .951l-.581.582c.09.222.161.45.215.685h.887c.37 0 .673.303.673.673v1.243c0 .37-.303.673-.673.673h-.89c-.05.235-.125.463-.216.685l.582.582a.669.669 0 01.14.207l-.143-.036c1.613.367 2.467 1.577 2.467 3.496v1.966c0 1.143-.303 2.034-.894 2.65-.619.638-1.536.96-2.723.96H3.613c-1.186 0-2.104-.326-2.719-.964C.303 22.044 0 21.153 0 20.01v-1.966c0-1.143.303-2.034.894-2.649.615-.639 1.533-.965 2.72-.965h.318V5.27c0-.184.152-.336.337-.336zm7.951 10.17l-8.607-.001c-.998 0-1.75.255-2.235.76-.467.487-.706 1.22-.706 2.18v1.967c0 .961.239 1.698.706 2.182.484.504 1.237.76 2.235.76H20c.998 0 1.751-.256 2.235-.76.468-.488.706-1.22.706-2.182v-1.966c0-.794-.161-1.436-.48-1.906-.284-.418-.705-.711-1.25-.875l-.058.068-.88.877a.674.674 0 01-.952 0l-.582-.581c-.221.09-.45.161-.685.215v.89c0 .37-.303.673-.672.673h-1.244a.674.674 0 01-.672-.672v-.891a4.058 4.058 0 01-.686-.215l-.582.581a.674.674 0 01-.95 0l-.878-.877a.669.669 0 01-.15-.228zm-8.912 3.125c.487 0 .806.255.803.796 0 .262-.07.457-.202.588-.14.145-.346.212-.601.212-.256 0-.46-.07-.602-.212-.128-.13-.202-.326-.202-.588 0-.544.316-.796.804-.796zm2.924 0c.487 0 .807.255.803.796 0 .262-.07.457-.201.588-.142.145-.347.212-.602.212-.256 0-.46-.07-.602-.212-.127-.13-.201-.326-.201-.588 0-.544.316-.796.803-.796zM17.378 6.908h-1.244v1.458c-.581.06-1.079.216-1.492.464l-.924-.924-.878.877.925.918c-.242.403-.4.9-.464 1.492h-1.459v1.244h1.459c.06.592.218 1.09.464 1.492l-.925.925.878.884.924-.925c.413.25.914.4 1.492.464v1.46h1.244v-1.46c.582-.06 1.08-.215 1.493-.464l.924.925.88-.877-.924-.925c.242-.403.4-.9.464-1.492h1.459V11.2h-1.459c-.06-.592-.218-1.09-.464-1.492l.925-.925-.881-.88-.924.924c-.414-.249-.915-.4-1.493-.464V6.908zm-.622 2.83c1.341 0 2.081.74 2.081 2.08 0 1.342-.74 2.081-2.08 2.081-1.342 0-2.081-.74-2.081-2.08 0-1.342.74-2.081 2.08-2.081zm0 .672c-.961 0-1.408.447-1.408 1.408 0 .962.447 1.409 1.408 1.409.962 0 1.409-.447 1.409-1.409 0-.96-.447-1.408-1.409-1.408zM9.812.094c1.203 1.16 1.815 2.901 1.815 5.177 0 2.265-.605 4.003-1.802 5.163a.335.335 0 01-.568-.242c0-.091.037-.179.101-.242 1.062-1.029 1.6-2.605 1.6-4.68 0-2.083-.541-3.66-1.61-4.692a.335.335 0 11.464-.484zM7.116 1.778c.817.787 1.23 1.963 1.23 3.493 0 1.526-.41 2.699-1.223 3.485a.328.328 0 01-.229.094.335.335 0 01-.336-.336c0-.09.037-.178.1-.242.676-.655 1.02-1.667 1.02-3.001 0-1.335-.347-2.353-1.026-3.009a.335.335 0 11.464-.484z" fill="#5CB615" fill-rule="nonzero"/></svg>
